Origami/64x64/apps/sparkleshare.svg

<svg width="64" height="64" version="1" xmlns="http://www.w3.org/2000/svg">
 <rect x="7" y="23" width="50" height="32" rx="2.5" ry="2.5" style="opacity:.2"/>
 <path d="m7 43.5c0 1.384 1.115 2.5 2.5 2.5h45c1.384 0 2.5-1.116 2.5-2.5v-27c0-1.385-1.116-2.5-2.5-2.5h-25.5v-1.5c0-1.385-1.114-2.5-2.5-2.5h-17c-1.385 0-2.5 1.115-2.5 2.5" style="fill:#dd772f"/>
 <rect x="7" y="21" width="50" height="32" rx="2.5" ry="2.5" style="opacity:.2"/>
 <rect x="11" y="17" width="42" height="20" rx="2.5" ry="2.5" style="fill:#dcdcdc"/>
 <rect x="7" y="22" width="50" height="32" rx="2.5" ry="2.5" style="fill:#ee923a"/>
 <path d="m9.5 10c-1.385 0-2.5 1.115-2.5 2.5v1c0-1.385 1.115-2.5 2.5-2.5h17c1.386 0 2.5 1.115 2.5 2.5v-1c0-1.385-1.114-2.5-2.5-2.5h-17zm19.5 4v0.5 0.5h25.5c1.384 0 2.5 1.115 2.5 2.5v-1c0-1.385-1.116-2.5-2.5-2.5h-25.5z" style="fill:#ffffff;opacity:.1"/>
 <path d="m32.09375 27.000386a2.6151274 2.512037 0 0 0 -2.5625 1.6875l-1.96875 5.445312-6 0.11328a2.6151274 2.512037 0 0 0 -1.527344 4.515624l4.78125 3.48047-1.738282 5.515624a2.6151274 2.512037 0 0 0 4 2.789064l4.921876-3.292968 4.921876 3.29297a2.6151274 2.512037 0 0 0 4 -2.789064l-1.738282-5.515624 4.78125-3.48047a2.6151274 2.512037 0 0 0 -1.527344 -4.515624l-6-0.11328-1.96875-5.445312a2.6151274 2.512037 0 0 0 -2.375 -1.6875zm-0.09375 3.683594l1.617188 4.46875a3.0003 3.0003 0 0 0 2.765624 1.980468l4.601564 0.08594-3.566408 2.597656a3.0003 3.0003 0 0 0 -1.097656 3.328126l1.359376 4.30078-4.01172-2.683594a3.0003 3.0003 0 0 0 -3.335936 0l-4.01172 2.683594 1.359376-4.30078a3.0003 3.0003 0 0 0 -1.097656 -3.328126l-3.566408-2.597656 4.601564-0.08594a3.0003 3.0003 0 0 0 2.765624 -1.980468l1.617188-4.46875z" style="opacity:.2"/>
 <path d="m32.09375 26a2.6151274 2.512037 0 0 0 -2.5625 1.6875l-1.96875 5.445312-6 0.11328a2.6151274 2.512037 0 0 0 -1.527344 4.515624l4.78125 3.48047-1.738282 5.515624a2.6151274 2.512037 0 0 0 4 2.789064l4.921876-3.292968 4.921876 3.29297a2.6151274 2.512037 0 0 0 4 -2.789064l-1.738282-5.515624 4.78125-3.48047a2.6151274 2.512037 0 0 0 -1.527344 -4.515624l-6-0.11328-1.96875-5.445312a2.6151274 2.512037 0 0 0 -2.375 -1.687502zm-0.09375 3.683594l1.617188 4.46875a3.0003 3.0003 0 0 0 2.765624 1.980468l4.601564 0.08594-3.566408 2.597656a3.0003 3.0003 0 0 0 -1.097656 3.328126l1.359376 4.30078-4.01172-2.683594a3.0003 3.0003 0 0 0 -3.335936 0l-4.01172 2.683594 1.359376-4.30078a3.0003 3.0003 0 0 0 -1.097656 -3.328126l-3.566408-2.597656 4.601564-0.08594a3.0003 3.0003 0 0 0 2.765624 -1.980468l1.617188-4.46875z" style="fill:#ffffff"/>
</svg>

<svg xmlns="http://www.w3.org/2000/svg" width="64" height="64" version="1">
 <rect style="opacity:0.2" width="50" height="32" x="7" y="23" rx="2.5" ry="2.5"/>
 <path style="fill:#dd772f" d="M 7,43.5 C 7,44.884 8.115,46 9.5,46 l 45,0 c 1.384,0 2.5,-1.116 2.5,-2.5 l 0,-27 C 57,15.115 55.884,14 54.5,14 L 29,14 29,12.5 C 29,11.115 27.886,10 26.5,10 l -17,0 C 8.115,10 7,11.115 7,12.5"/>
 <rect style="opacity:0.2" width="50" height="32" x="7" y="21" rx="2.5" ry="2.5"/>
 <rect style="fill:#dcdcdc" width="42" height="20" x="11" y="17" rx="2.5" ry="2.5"/>
 <rect style="fill:#ee923a" width="50" height="32" x="7" y="22" rx="2.5" ry="2.5"/>
 <path style="opacity:0.1;fill:#ffffff" d="M 9.5 10 C 8.115 10 7 11.115 7 12.5 L 7 13.5 C 7 12.115 8.115 11 9.5 11 L 26.5 11 C 27.886 11 29 12.115 29 13.5 L 29 12.5 C 29 11.115 27.886 10 26.5 10 L 9.5 10 z M 29 14 L 29 14.5 L 29 15 L 54.5 15 C 55.884 15 57 16.115 57 17.5 L 57 16.5 C 57 15.115 55.884 14 54.5 14 L 29 14 z"/>
 <path style="opacity:0.2" d="m 32.09375,27.000386 a 2.6151274,2.512037 0 0 0 -2.5625,1.6875 l -1.96875,5.445312 -6,0.11328 a 2.6151274,2.512037 0 0 0 -1.527344,4.515624 l 4.78125,3.48047 -1.738282,5.515624 a 2.6151274,2.512037 0 0 0 4,2.789064 L 32,47.254292 l 4.921876,3.29297 a 2.6151274,2.512037 0 0 0 4,-2.789064 l -1.738282,-5.515624 4.78125,-3.48047 A 2.6151274,2.512037 0 0 0 42.4375,34.24648 l -6,-0.11328 -1.96875,-5.445312 a 2.6151274,2.512037 0 0 0 -2.375,-1.6875 z M 32,30.68398 l 1.617188,4.46875 a 3.0003,3.0003 0 0 0 2.765624,1.980468 l 4.601564,0.08594 -3.566408,2.597656 a 3.0003,3.0003 0 0 0 -1.097656,3.328126 l 1.359376,4.30078 -4.01172,-2.683594 a 3.0003,3.0003 0 0 0 -3.335936,0 l -4.01172,2.683594 1.359376,-4.30078 a 3.0003,3.0003 0 0 0 -1.097656,-3.328126 l -3.566408,-2.597656 4.601564,-0.08594 A 3.0003,3.0003 0 0 0 30.382812,35.15273 L 32,30.68398 Z"/>
 <path style="fill:#ffffff" d="m 32.09375,26 a 2.6151274,2.512037 0 0 0 -2.5625,1.6875 l -1.96875,5.445312 -6,0.11328 a 2.6151274,2.512037 0 0 0 -1.527344,4.515624 l 4.78125,3.48047 -1.738282,5.515624 a 2.6151274,2.512037 0 0 0 4,2.789064 L 32,46.253906 l 4.921876,3.29297 a 2.6151274,2.512037 0 0 0 4,-2.789064 l -1.738282,-5.515624 4.78125,-3.48047 A 2.6151274,2.512037 0 0 0 42.4375,33.246094 l -6,-0.11328 -1.96875,-5.445312 A 2.6151274,2.512037 0 0 0 32.09375,26 Z M 32,29.683594 l 1.617188,4.46875 a 3.0003,3.0003 0 0 0 2.765624,1.980468 l 4.601564,0.08594 -3.566408,2.597656 a 3.0003,3.0003 0 0 0 -1.097656,3.328126 l 1.359376,4.30078 -4.01172,-2.683594 a 3.0003,3.0003 0 0 0 -3.335936,0 l -4.01172,2.683594 1.359376,-4.30078 a 3.0003,3.0003 0 0 0 -1.097656,-3.328126 l -3.566408,-2.597656 4.601564,-0.08594 a 3.0003,3.0003 0 0 0 2.765624,-1.980468 L 32,29.683594 Z"/>
</svg>
